X:20
T:Le vert galant/On veut des ronds
I:last changed 14/2/2016
F:http://www.campin.me.uk/Music/Edinbal.abc
G:Rond de Saint-Vincent
C:Philippe Plard
M:4/4
L:1/8
%Q:1/2=92
K:Amin
AB|c2 A2 F3  c|BA Bc A2 AB|c2 A2 F3  c|BA Bc A2:|
AB|c2 e2 e2 AB|c2 e2 d3  d|dc BA dc BA|c2 B2 A2:|

